src/main/resources/icons/PhpIcons/icons/Add_to_skip_list2_dark.svg

<svg xmlns="http://www.w3.org/2000/svg" width="16" height="16" viewBox="0 0 16 16"><rect id="frame" width="16" height="16" fill="none"/><g fill="none" fill-rule="evenodd"><path fill="#AFB1B3" d="M3 3h10v2H3z"/><path fill="#AFB1B3" d="M3 7h7v2H3z"/><path fill="#AFB1B3" d="M3 11h4v2H3z"/><path fill="#C75450" d="M13 11h3v2h-3v3h-2v-3H8v-2h3V8h2v3z"/></g></svg>

<svg xmlns="http://www.w3.org/2000/svg" width="16" height="16" viewBox="0 0 16 16">
  <g fill="none" fill-rule="evenodd">
    <rect width="10" height="2" x="3" y="3" fill="#AFB1B3"/>
    <rect width="7" height="2" x="3" y="7" fill="#AFB1B3"/>
    <rect width="4" height="2" x="3" y="11" fill="#AFB1B3"/>
    <path fill="#C75450" d="M13,11 L16,11 L16,13 L13,13 L13,16 L11,16 L11,13 L8,13 L8,11 L11,11 L11,8 L13,8 L13,11 Z"/>
  </g>
</svg>
